X: 42270
T: Weatherman, The
R: reel
M: 4/4
K: Dminor
|:d3c AcAG|GFDC ~A,3D|DFFD G3A-|AAAG AAGA|
d3c AcAG|GFDE F3D|~G3F GAcG|1 GFDF D2A2:|2 GFDF D2ga||
|:gfdc d2e2|f2eg fdcA|dcAG GFDE|FAED EDCD|
A3F GAcG|GFDE EFFD|G3F GAcG|1 GFDF DDga:|2 GFDC A,2A,C||

